X: 283
M: 6/8
L: 1/8
K: G
dcB cBA | G2G G2B/c/ |\
dcB cBA | G3 zz :|\
|:\
dcB cBA | G2G G2B/c/ |\
dcB cBA | G6 :|

